X:1
T:Sinfonia a due mandolini e Basso
T:Sinfonia a due mandolini e Basso
T:Gioachino Cocchi (1712-1796) Gimo 76
T:public domain - Mutopia-2013/04/10-324
T:public domain - Mutopia-2013/04/10-324
T:public domain - Mutopia-2013/04/10-324
T:public domain - Mutopia-2013/04/10-324
C:Gioachino Cocchi (1712-1796)
C:Gimo 76
Z:public domain - Mutopia-2013/04/10-324
%%score [ ( 1 2 3 ) ( 4 5 ) 6 ]
L:1/8
Q:1/4=60
M:4/4
K:D
V:1 treble nm="Mandolino"
V:2 treble 
V:3 treble 
V:4 treble nm="Mandolino"
V:5 treble 
V:6 bass transpose=-12 nm="Basso acustico"
V:1
"^Allegro assai" [DAf]2 af [DAf]2 af | [DAf]2 af gebg | [DAf]2 af [DAf]2 af | [DAf]2 af geaA | %4
 d2 fa a2 fa | a2 fd e2 ca | a2 ea a2 ec | d2 Ba a2 ec | d2 Ba a2 da | a2 dA c2 Ae | %10
{f} e2 ae{f} e2 ae |{f} e2 fA [Be]2 bd' | c'ebd' c'ebd' | c'b/a/ b!courtesy!^g a2 Bd | cEBd cEBd | %15
 cB/A/ eE Aa/b/ aa | aaaa aAAA | c'c'c'c' c'a FA | eada c'afa | eada c2 EE | ECAA AEcc | %21
 cAee ecaa | a/c/a/c/ a/c/a/c/ a/c/a/c/ a/c/a/c/ | a2 ^g2 [ca]2 [ce]a | [ce][ce][ce][ce] [ce]2 z2 | %25
 a3/2g/4a/4 ba g<b ^c<e | =c B2 A GB E2 | g3/2(f/4g/4) a<g f<a c<d | B A2 G FA D2 | %29
{g} f3/2e/4f/4 gf e3/2d/4e/4 fe | d3/2c/4d/4 ed c2 z2 | f3/2e/4f/4 gf/>f/{f} e3/2d/4e/4 fe/>e/ | %32
{e} d3/2c/4d/4 ed c2 z2 | [DAf]2 af [DAf]2 af | [DAf]2 af gebg | [DAf]2 af [DAf]2 af | %36
 [DAf]2 af geaA | d2 ad' d'2 ad' | d'^gga a2 e=c' | !courtesy!=c'2 ac' c'ffg | g2 d_b b2 gb | %41
 !courtesy!_bged c2 Ac | aaaa aaaa | aa ab/c'/ d'd'd'd' | d'd'd'd' d'd'd'd' | %45
 c'2 AA A/4B/4c3/2 cc | c/4d/4e3/2 ee e/4f/4g3/2 gg | [DAf]2 Aa (g/4a/4)b3/2 (e/4f/4)g3/2 | %48
 (f/4g/4)a3/2 Aa (g/4a/4)b3/2 (e/4f/4)g3/2 | (f/4g/4)a3/2 (d/4e/4)f3/2 (e/4f/4)g3/2 (c/4d/4)e3/2 | %50
 d2 Aa g/4a/4_b3/2 e/4=f/4g3/2 | =f/4g/4a3/2 Aa g/4a/4_b3/2 e/4f/4g3/2 | %52
 (=f/4g/4)a3/2 (d/4e/4)f3/2 (e/4f/4)g3/2 c/4d/4e3/2 | d2 AA AFdd | dAff fdaa | %55
 afd'd' d'/f/d'/f/ d'/f/d'/f/ | d'/f/d'/f/ d'/f/d'/f/ [ed']2 [ec']2 | [fd']2 ^gb aA =g2 | %58
 [DAf]2 ^gb aA =g2 | [DAf]a[DAf]a [DBg]2 e2 | [DAf]a[DAf]a [DBg]2 e2 | %61
 [DAf]2 ad' [DAa][DAa][DAa][DAa] | [DAa]4 !fermata!z4 |] %63
[K:Bb][M:2/4][Q:1/4=60]"^Largo" g g2 (3b/a/g/ | d d2 (3(e/d/c/) | B B2 (3c/B/A/ | GD G,2 | %67
 g g2 (3b/a/g/ | d d2 (3e/d/c/ | B B2 (3c/B/A/ | GD G,(3b/a/g/ | f f2 (3g/f/e/ | d d2 (3f/e/d/ | %73
 c (3e/d/c/ (3g/f/e/ (3d/c/B/ | (3A/G/F/ F2 (3a/g/f/ | (3b/a/g/{f} e2 (3g/f/e/ | %76
 (3a/g/f/ d2 (3f/e/d/ | (3g/f/e/ (3d/e/c/ BA | B3 (3d/c/B/ | f f2 (3_a/g/f/ | %80
 (3e/d/c/ c2 (3e/d/c/ | g [^cg]2 (3b/a/g/ | (3^f/=e/d/ d2 (3_e/d/c/ | [DB] (3d/c/B/ [DA](3e/d/c/ | %84
{c} B3/2 A/4B/4 A(3e/d/c/ | [DB] (3d/c/B/ [DA](3e/d/c/ | [DBg]3/2 (^f/4g/4) (3a/g/f/ (3e/d/c/ | %87
 [G,DB]3/2 (c/4d/4) (3e/d/c/ (3B/A/G/ | D3/2 (G/4A/4) A2 | [DBg]3/2 ^f/4g/4 (3a/g/f/ (3e/d/c/ | %90
 [G,DB]3/2 c/4d/4 (3e/d/c/ (3B/A/G/ | D3/2 G/4A/4 A2 | GD G,2 |] %93
[K:D][M:3/8][Q:1/4=90]"^Allegro" [DAa]2 g | f/d/c/e/d/A/ | [DAa]2 g | f/d/c/e/d/A/ | [Ddb]2 a | %98
 g2 f | e/a/ g/e/ f/d/ | a A2 | [DAa]2 g | f/d/c/e/d/A/ | [DAa]2 g | f/d/c/e/d/A/ | [Ddb]2 a | %106
 g2 f | (3e/a/b/ g/e/f/d/ | a A2 | e2 a/f/ | e{d} c2 | e2 a/f/ | e c2 | f/a/^g/b/a/f/ | e^GA | %115
 f/a/^g/b/a/f/ | e/a/^g/b/a/e/ | dcB | A A,2 | az/_b/a/>g/ | =f/>e/d/>e/f/>g/ | a/>_b/a/>g/=f/>e/ | %122
 d D2 | Az/_B/A/G/ | =F/>E/D/>E/F/>G/ | A/>_B/A/>G/=F/>E/ | D A,2 | =f/e/4f/4 _bg | e2 a | %129
 d/e/4=f/4 e/d/c/d/ | eAA | g2 ^f | b2 a | g2 f | b2 a | d'2 c' | d'[DA]g | f/a/ f/d/e/A/ | %138
 f/a/ f/d/e/A/ | f/a/f/d/e/A/ | d [DA]2 | az/!courtesy!_b/a/>g/ | =f/>e/d/>e/f/>g/ | %143
 a/>_b/a/>g/=f/>e/ | d D2 | Az/!courtesy!_B/A/>G/ | =F/>E/D/>E/F/>G/ | %147
 A/>_B/A/>G/!courtesy!=F/>E/ | D A,2 |{g} f/e/4f/4_bg |{f} e2 a | d/e/4=f/4e/d/^c/d/ | eAA | %153
 g2 ^f | b2 a | g2 f | b2 a | d'2 c' | d'[DA]g | f/a/ f/d/e/A/ | f/a/ f/d/e/A/ | f/a/ f/d/e/c/ | %162
 d[DA]g | f/a/ f/d/e/A/ | f/a/ f/d/e/A/ | f/a/ f/d/e/A/ | da/A/g/A/ | [DAf]a/A/g/A/ | [DAf]2 z |] %169
V:2
 x8 | x8 | x8 | x8 | x8 | x8 | x8 | x8 | x8 | x8 | x8 | x4 ^G2 x2 | x8 | x8 | x8 | x8 | x5 c'c'c' | %17
 AAAA A2 x2 | x8 | x8 | x8 | x8 | x8 | B2 B2 E2 A x | AAAA A2 x2 | x8 | x8 | x8 | x8 | x8 | x8 | %31
 x8 | x8 | x8 | x8 | x8 | x8 | x8 | x8 | x8 | x8 | x8 | z AAA AAAA | AA A2 ffff | ffff ff f2 | %45
 e2 x6 | x8 | x8 | x8 | x8 | x8 | x8 | x8 | x8 | x8 | x8 | x8 | D2 x4 A2 | x6 A2 | x6 c2 | x6 c2 | %61
 x8 | x8 |][K:Bb][M:2/4] x B2 x | x ^F2 x | x G2 x | x4 | x B2 x | x ^F2 x | x G2 x | x4 | x A2 x | %72
 x F2 x | x4 | x4 | x4 | x4 | x4 | x4 | x =B2 x | x4 | x4 | x4 | x4 | x4 | x4 | x4 | x4 | x4 | x4 | %90
 x4 | x4 | x4 |][K:D][M:3/8] x3 | x3 | x3 | x3 | x3 | x3 | A2 z | c x2 | x3 | x3 | x3 | x3 | x3 | %106
 x3 | A2 z | c x2 | A2 x | x3 | A2 x | x3 | x3 | x3 | x3 | x3 | x3 | x3 | x3 | x3 | x3 | x3 | x3 | %124
 x3 | x3 | x3 | x3 | x3 | x3 | x3 | x3 | x3 | x3 | x3 | x3 | x3 | A x2 | A x2 | A x2 | x3 | x3 | %142
 x3 | x3 | x3 | x3 | x3 | x3 | x3 | x3 | x3 | x3 | x3 | x3 | x3 | x3 | x3 | x3 | x3 | A x2 | A x2 | %161
 A x2 | x3 | A x2 | A x2 | A x2 | x3 | x3 | x3 |] %169
V:3
 x8 | x8 | x8 | x8 | x8 | x8 | x8 | x8 | x8 | x8 | x8 | x8 | x8 | x8 | x8 | x8 | x8 | x8 | x8 | %19
 x8 | x8 | x8 | x8 | x8 | x8 | x8 | x8 | x8 | x8 | x8 | x8 | x8 | x8 | x8 | x8 | x8 | x8 | x8 | %38
 x8 | x8 | x8 | x8 | x8 | x8 | x8 | x8 | x8 | x8 | x8 | x8 | x8 | x8 | x8 | x8 | x8 | x8 | x8 | %57
 x8 | x8 | x8 | x8 | x8 | x8 |][K:Bb][M:2/4] x4 | x4 | x4 | x4 | x4 | x4 | x4 | x4 | x4 | x4 | x4 | %74
 x4 | x4 | x4 | x4 | x4 | x4 | x4 | x4 | x4 | x4 | x4 | x4 | x4 | x4 | x4 | x4 | x4 | x4 | x4 |] %93
[K:D][M:3/8] x3 | x3 | x3 | x3 | x3 | x3 | x3 | z x2 | x3 | x3 | x3 | x3 | x3 | x3 | x3 | x3 | %109
 c2 x | x3 | c2 x | x3 | x3 | x3 | x3 | x3 | x3 | x3 | x3 | x3 | x3 | x3 | x3 | x3 | x3 | x3 | x3 | %128
 x3 | x3 | x3 | x3 | x3 | x3 | x3 | x3 | x3 | x3 | x3 | x3 | x3 | x3 | x3 | x3 | x3 | x3 | x3 | %147
 x3 | x3 | x3 | x3 | x3 | x3 | x3 | x3 | x3 | x3 | x3 | x3 | x3 | x3 | x3 | x3 | x3 | x3 | x3 | %166
 x3 | x3 | x3 |] %169
V:4
 [DAf]2 af [DAf]2 af | [DAf]2 af gebg | [DAf]2 af [DAf]2 af | [DAf]2 af geaA | d2 fa a2 fa | %5
 a2 fd e2 ca | a2 ea a2 ec | d2 Ba a2 ec | d2 Ba a2 da | a2 dA c2 Ae |{f} e2 ae{f} e2 ae | %11
{f} e2 fA [Be]2 bd' | c'ebd' c'ebd' | c'b/a/ b!courtesy!^g a2 Bd | cEBd cEBd | cB/A/ eE Aa/b/ aa | %16
 aaaa aAAA | c'c'c'c' c'a FA | eada c'afa | eada c2 EE | ECAA AEcc | cAee ecaa | %22
 a/c/a/c/ a/c/a/c/ a/c/a/c/ a/c/a/c/ | a2 ^g2 [ca]2 [ce]a | [ce][ce][ce][ce] [ce]2 z2 | %25
 a3/2g/4a/4 ba g<b ^c<e | =c B2 A GB E2 | g3/2(f/4g/4) a<g f<a c<d | B A2 G FA D2 | %29
{g} f3/2e/4f/4 gf e3/2d/4e/4 fe | d3/2c/4d/4 ed c2 z2 | f3/2e/4f/4 gf/>f/{f} e3/2d/4e/4 fe/>e/ | %32
{e} d3/2c/4d/4 ed c2 z2 | [DAf]2 af [DAf]2 af | [DAf]2 af gebg | [DAf]2 af [DAf]2 af | %36
 [DAf]2 af geaA | d2 ad' d'2 ad' | d'^gga a2 e=c' | !courtesy!=c'2 ac' c'ffg | g2 d_b b2 gb | %41
 !courtesy!_bged c2 Ae | aaaa aaaa | aa ab/c'/ d'd'd'd' | d'd'd'd' d'd'd'd' | %45
 c'2 AA A/4B/4c3/2 cc | c/4d/4e3/2 ee e/4f/4g3/2 gg | [DAf]2 Aa (g/4a/4)b3/2 (e/4f/4)g3/2 | %48
 (f/4g/4)a3/2 Aa (g/4a/4)b3/2 (e/4f/4)g3/2 | (f/4g/4)a3/2 (d/4e/4)f3/2 (e/4f/4)g3/2 (c/4d/4)e3/2 | %50
 d2 Aa g/4a/4_b3/2 e/4=f/4g3/2 | =f/4g/4a3/2 Aa g/4a/4_b3/2 e/4f/4g3/2 | %52
 (=f/4g/4)a3/2 (d/4e/4)f3/2 (e/4f/4)g3/2 c/4d/4e3/2 | d2 AA AFdd | dAff fdaa | %55
 afd'd' d'/f/d'/f/ d'/f/d'/f/ | d'/f/d'/f/ d'/f/d'/f/ [ed']2 [ec']2 | [fd']2 ^gb aA =g2 | %58
 [DAf]2 ^gb aA =g2 | [DAf]a[DAf]a [DBg]2 e2 | [DAf]a[DAf]a [DBg]2 e2 | %61
 [DAf]2 ad' [DAa][DAa][DAa][DAa] | [DAa]4 !fermata!z4 |][K:Bb][M:2/4] z4 | z4 | z4 | z4 | z4 | z4 | %69
 z4 | z4 | z4 | z4 | z4 | z4 | z4 | z4 | z4 | z4 | z4 | z4 | z4 | z4 | z4 | z4 | z4 | z4 | z4 | %88
 z4 | z4 | z4 | z4 | z4 |][K:D][M:3/8] z3 | z3 | z3 | z3 | z3 | z3 | z3 | z3 | z3 | z3 | z3 | z3 | %105
 z3 | z3 | z3 | z3 | z3 | z3 | z3 | z3 | z3 | z3 | z3 | z3 | z3 | z3 | z3 | z3 | z3 | z3 | z3 | %124
 z3 | z3 | z3 | z3 | z3 | z3 | z3 | z3 | z3 | z3 | z3 | z3 | z3 | z3 | z3 | z3 | z3 | z3 | z3 | %143
 z3 | z3 | z3 | z3 | z3 | z3 | z3 | z3 | z3 | z3 | z3 | z3 | z3 | z3 | z3 | z3 | z3 | z3 | z3 | %162
 z3 | z3 | z3 | z3 | z3 | z3 | z3 |] %169
V:5
 x8 | x8 | x8 | x8 | x8 | x8 | x8 | x8 | x8 | x8 | x8 | x4 ^G2 x2 | x8 | x8 | x8 | x8 | x5 c'c'c' | %17
 AAAA A2 x2 | x8 | x8 | x8 | x8 | x8 | B2 B2 E2 A x | AAAA A2 x2 | x8 | x8 | x8 | x8 | x8 | x8 | %31
 x8 | x8 | x8 | x8 | x8 | x8 | x8 | x8 | x8 | x8 | x8 | z AAA AAAA | AA A2 ffff | ffff ff f2 | %45
 e2 x6 | x8 | x8 | x8 | x8 | x8 | x8 | x8 | x8 | x8 | x8 | x8 | D2 x4 A2 | x6 A2 | x6 c2 | x6 c2 | %61
 x8 | x8 |][K:Bb][M:2/4] x4 | x4 | x4 | x4 | x4 | x4 | x4 | x4 | x4 | x4 | x4 | x4 | x4 | x4 | x4 | %78
 x4 | x4 | x4 | x4 | x4 | x4 | x4 | x4 | x4 | x4 | x4 | x4 | x4 | x4 | x4 |][K:D][M:3/8] x3 | x3 | %95
 x3 | x3 | x3 | x3 | x3 | x3 | x3 | x3 | x3 | x3 | x3 | x3 | x3 | x3 | x3 | x3 | x3 | x3 | x3 | %114
 x3 | x3 | x3 | x3 | x3 | x3 | x3 | x3 | x3 | x3 | x3 | x3 | x3 | x3 | x3 | x3 | x3 | x3 | x3 | %133
 x3 | x3 | x3 | x3 | x3 | x3 | x3 | x3 | x3 | x3 | x3 | x3 | x3 | x3 | x3 | x3 | x3 | x3 | x3 | %152
 x3 | x3 | x3 | x3 | x3 | x3 | x3 | x3 | x3 | x3 | x3 | x3 | x3 | x3 | x3 | x3 | x3 |] %169
V:6
 D,2 z2 D,2 z2 | D,2 F,2 E,2 C,2 | D,2 z2 D,2 z2 | D,2 F,2 G,2 A,2 | D,D,D,D, D,D,D,D, | %5
 D,D,D,D, C,C,C,C, | C,C,C,C, C,C,C,C, | B,,B,,B,,B,, D,D,D,D, | B,,B,,B,,B,, A,,A,,A,,A,, | %9
 A,,2 z2 A,,2 z2 | =C,2 D,2 E,2 z ^G, | A,2 z ^G, A,2 E,2 | A,,2 z ^G, A,2 z G, | %13
 A,2 z ^G, A,2 E,2 | A,,A,^G,F, E,D,C,B,, | A,,A,^G,F, E,D,C,B,, | A,,2 D,2 C,2 B,,2 | %17
 A,,2 D,2 C,2 B,,2 | A,,2 z2 A,,2 z2 | A,,2 z2 A,,2 z2 | A,^G,F,E, F,E,D,C, | D,2 E,2 A,,2 A,,A,, | %22
 A,,A,,A,,A,, A,,A,F,E, | D,2 C,2 E,2 G,2 | B,E,G,E, z4 | C,2 A,,2 D,2 F,2 | G,2 A,2 D,F,D,C, | %27
 B,,DED CB,^A,F, | B,=A,G,E, F,E,D,C, | B,,[K:tenor] DED CB,^A,G, | B,=A,G,E, F,2[K:bass] F,E, | %31
 D,2 z2 D,2 z2 | D,2 F,2 E,2 C,2 | D,2 D,2 D,2 z2 | D,2 F,2 G,2 A,2 | D,2 z2[K:tenor] =FFFF | %36
 !courtesy!=F2 D2 ^C2 z2 | z8 | _EEEE ^D2 =C2 | _B,2 z2 G,G,G,G, | G,2 ^G,2 A,2[K:bass] A,,2- | %41
 A,,A,,G,G, F,F,E,E, | D,D,C,C, B,,B,,A,,A,, | G,,G,,F,,F,, G,,G,,^G,,G,, | A,,2 z2 A,,2 z2 | %45
 A,,2 z2 A,,2 z2 | D,2 F,2 E,2 C,2 | D,2 F,2 E,2 C,2 | D,2 B,,2 G,,2 A,,2 | %49
 D,,2[K:tenor] =F2 E2 C2 | D2 =F2 E2 C2 | D2 _B,2 G,2 A,2 | D,2 z2[K:bass] D,2 z2 | D,2 z2 D,2 z2 | %54
 D,2 z2 DCB,A, | B,A,G,F, G,2 A,2 | D,2 z2 z2 A,,2 | D,,2 z2 z2 A,,2 | D,D D,D G,2 A,2 | %59
 D,D D,D G,2 A,2 | D,D D,D G,2 A,2 | D,2 D,2 D,D,D,D, | D,2 z2 !fermata!z4 |] %63
[K:Bb][M:2/4] z G,B,G, | z D,^F,D, | G, E, C,D, | G,D, G,,2 | z G,B,G, | z D,^F,D, | G,E,C,D, | %70
 G, D, G,2 | z F,A,F, | z B,,D,B,, | E, E, E,=E, | F, F,, F,,F, | G, G, G,G, | F,F,F,F, | %77
 E, E, F,F, | B, B,, B,,2 | z G,/_B,/ A,_B,, | C, C,, C,,2 | z =A,/B,/ B,^C, | D, D,, D,,^F, | %83
 G, z F, z | G, ^C, D,^F, | G, z ^F, z | G, B, D,^F, | G, B, C,E, | D,B,,C,D, | G, B, D,^F, | %90
 G, B, C,E, | D, B,, C,D, | G, D, G,,2 |][K:D][M:3/8] D,2 A,, | D,E,F, | D,2 A,, | D,E,F, | %97
 G,2 F, | E,C,D, | A,,A,,A,, | A,,2 z | D,2 A,, | D,E,F, | D,2 A,, | D,E,F, | G,2 F, | E,C,D, | %107
 A,,A,,A,, | A,,2 z | A,,3 | A,A,A, | A,,3 | A,A,A, | D,E,F, | C,B,,A,, | D,E,F, | A,,B,,C, | %117
 D,E,E,, | A,,A,=G, | =F,D,C, | D,D,D, | C,C,A,, | D,=F,E, | D,[K:tenor]DC | DDD | CCA, | D,=F,E, | %127
 D,D_B, | !courtesy!=C2 =F, | _B,B,B, | A,2 z |[K:bass] C,A,,D, | G,E,F, | C,A,,D, | G,E,F, | %135
 B,G,A, | F,F,E, | D,2 C, | D,2 C, | D,2 C, | D,A,G, | =F,D,C, | D,D,D, | C,C,A,, | D,=F,E, | %145
 D,[K:tenor]DC | DDD | CCA, | D,=F,E, | D,D_B, | =C2 =F, | _B,B,B, | A, z z |[K:bass] C,A,,D, | %154
 G,E,F, | C,A,,D, | G,E,F, | B,G,A, | F,G,E, | D,2 C, | D,2 C, | D,D,A,, | D,,F,E, | D,2 C, | %164
 D,2 C, | D,2 C, | D,F,A, | D,F,A, | D,2 !fermata!z |] %169

